public/logos/Ashton.svg

<svg version="1.1" id="Layer_1" xmlns="http://www.w3.org/2000/svg" xmlns:xlink="http://www.w3.org/1999/xlink" x="0px" y="0px"
	 width="100%" viewBox="0 0 1024 464" enable-background="new 0 0 1024 464" xml:space="preserve">
<path fill="#000000" opacity="1.000000" stroke="none" 
	d="
M1.000000,348.428467 
	C10.883104,347.486969 16.557505,341.267578 20.773911,333.232239 
	C27.675455,320.079742 32.797600,306.145721 38.391006,292.425720 
	C55.491589,250.479904 72.493057,208.493652 89.535110,166.523956 
	C90.514519,164.111938 90.916832,161.246887 94.533592,161.184662 
	C98.042000,161.124329 98.822533,163.697617 99.867088,166.185196 
	C119.661552,213.324722 139.463470,260.461090 159.288467,307.587799 
	C162.581375,315.415436 165.890991,323.238922 169.371536,330.984070 
	C173.097626,339.275635 177.714096,346.691376 187.994629,347.843292 
	C190.288742,348.100311 190.927856,349.840363 190.764359,351.868256 
	C190.581985,354.130280 188.851349,354.303711 187.105225,354.303284 
	C165.941940,354.298187 144.778641,354.287384 123.615356,354.271088 
	C121.646248,354.269562 119.937973,353.946442 119.786201,351.408783 
	C119.621880,348.661041 121.325584,348.021637 123.542580,347.864624 
	C123.708786,347.852875 123.874611,347.832886 124.040977,347.826721 
	C140.615463,347.211975 140.810760,339.408081 136.996292,327.754395 
	C133.377121,316.697479 128.519974,306.046967 124.251167,295.200439 
	C123.385735,293.001495 121.837822,292.300140 119.580574,292.304840 
	C98.417343,292.348999 77.253998,292.346802 56.090721,292.324432 
	C54.085690,292.322327 52.575134,292.739685 51.819820,294.891541 
	C47.634354,306.815643 41.810009,318.157898 39.033062,330.580078 
	C36.631538,341.322845 40.364418,346.493622 51.190876,347.640015 
	C52.018471,347.727631 52.854244,347.735077 53.684113,347.804779 
	C55.947487,347.994873 56.923428,349.338623 56.803074,351.495544 
	C56.686207,353.590057 55.339638,354.281525 53.408649,354.278198 
	C47.743050,354.268433 42.077351,354.313965 36.411766,354.301544 
	C24.915201,354.276337 13.418686,354.227295 1.461075,354.094055 
	C1.000000,352.285645 1.000000,350.571289 1.000000,348.428467 
M91.549248,213.864029 
	C90.124695,211.160614 89.782509,207.919601 87.287163,204.818008 
	C77.300194,229.998077 67.575714,254.516327 57.658657,279.520142 
	C78.013596,279.520142 97.511253,279.520142 118.126114,279.520142 
	C109.136993,257.340454 100.472420,235.961563 91.549248,213.864029 
z"/>
<path fill="#000000" opacity="1.000000" stroke="none" 
	d="
M821.576294,164.217072 
	C834.853088,164.112747 847.684326,164.109207 860.514404,163.985352 
	C863.795837,163.953690 866.100769,165.125214 868.120728,167.791199 
	C899.916504,209.755859 931.787720,251.663345 963.657715,293.571777 
	C964.954773,295.277374 966.409119,296.863434 967.868042,298.597778 
	C969.355652,297.147186 968.755188,295.571472 968.755615,294.199249 
	C968.764832,262.369568 968.769348,230.539673 968.630798,198.710464 
	C968.612793,194.576065 968.117065,190.382919 967.303650,186.324997 
	C965.385437,176.755707 960.028076,172.563354 948.746460,171.415771 
	C946.242371,171.161041 943.578552,171.545929 943.648499,167.680466 
	C943.725342,163.432693 946.822693,164.048828 949.344177,164.040573 
	C967.008606,163.982788 984.673340,164.016235 1002.338013,164.025436 
	C1003.003845,164.025787 1003.670105,164.068405 1004.335388,164.105789 
	C1006.655945,164.236191 1008.101257,165.199814 1008.047302,167.785767 
	C1007.994324,170.325317 1006.620117,171.059738 1004.257690,171.375244 
	C988.857788,173.431900 984.413208,178.376450 983.245361,194.030899 
	C981.296021,220.161346 982.635986,246.325027 982.386902,272.471436 
	C982.136047,298.799408 982.365906,325.131805 982.292053,351.462006 
	C982.286560,353.425903 983.501892,356.160248 980.734436,357.180542 
	C977.658264,358.314575 975.906677,356.125214 974.201111,353.893341 
	C940.106689,309.277588 905.982605,264.684387 871.848755,220.098755 
	C867.429138,214.325806 862.922058,208.619873 857.376892,203.176849 
	C857.376892,205.946030 857.375916,208.715210 857.377075,211.484390 
	C857.390564,242.814255 857.256287,274.145325 857.514771,305.473175 
	C857.585938,314.094238 857.410767,322.825958 859.196106,331.337677 
	C861.289978,341.320557 866.123108,345.497406 876.185852,346.647186 
	C877.673157,346.817108 879.188354,346.835022 880.648071,347.132233 
	C882.428406,347.494629 882.914185,348.934357 882.936584,350.545074 
	C882.959900,352.222961 882.302429,353.504639 880.506042,353.792053 
	C879.361816,353.975098 878.185974,354.023346 877.024170,354.024139 
	C859.359497,354.035889 841.694824,354.034546 824.030151,354.017151 
	C822.869507,354.015991 821.693970,353.948700 820.551758,353.756104 
	C818.726196,353.448273 818.176758,352.082703 818.199890,350.444916 
	C818.222656,348.834503 818.737671,347.479553 820.540833,347.076904 
	C821.026611,346.968414 821.523804,346.884003 822.019836,346.852753 
	C838.774048,345.796844 843.253723,338.647003 843.545532,321.763275 
	C844.052307,292.441498 843.752380,263.105713 843.778320,233.775787 
	C843.790710,219.777344 843.772888,205.778854 843.772217,191.780396 
	C843.771790,182.401779 834.958557,172.452240 825.569336,171.255051 
	C824.247498,171.086517 822.913879,171.012085 821.589966,170.857651 
	C819.672852,170.634048 817.992554,170.207626 817.833008,167.734695 
	C817.674316,165.276459 819.101807,164.539383 821.576294,164.217072 
z"/>
<path fill="#000000" opacity="1.000000" stroke="none" 
	d="
M473.999207,354.301208 
	C458.172302,354.300690 442.845276,354.313934 427.518311,354.285797 
	C425.091705,354.281342 422.100677,354.854614 422.173767,350.937073 
	C422.239105,347.433990 424.998840,347.867371 427.276733,347.722137 
	C439.251831,346.958405 443.598022,342.523468 443.696533,330.423492 
	C443.840332,312.765350 443.706146,295.104736 443.879089,277.447052 
	C443.916687,273.607971 442.755096,272.186829 438.753448,272.217804 
	C417.596710,272.381622 396.437317,272.397705 375.280792,272.225006 
	C371.179199,272.191528 370.208893,273.721405 370.242523,277.497986 
	C370.395325,294.656250 370.248627,311.816986 370.345886,328.976044 
	C370.422424,342.480042 374.181366,346.492767 387.555267,347.748993 
	C389.977264,347.976532 392.432770,348.084778 392.182770,351.507446 
	C391.942169,354.801819 389.372223,354.266510 387.310944,354.270630 
	C367.152649,354.310822 346.994232,354.308044 326.835876,354.293884 
	C324.521271,354.292267 321.900482,354.624390 321.826904,351.070587 
	C321.760498,347.861206 324.113892,347.928925 326.302856,347.741150 
	C339.398102,346.617767 343.488281,342.282806 343.634705,328.990295 
	C343.759491,317.662933 343.677338,306.333252 343.676849,295.004578 
	C343.675690,266.516296 343.672821,238.028000 343.656036,209.539719 
	C343.654846,207.543243 343.689697,205.527359 343.442932,203.553604 
	C342.000214,192.014420 338.955383,189.122864 327.277374,187.991562 
	C324.825592,187.754044 321.887177,188.039108 322.068207,184.253479 
	C322.246735,180.519623 325.170471,180.923096 327.615845,180.918549 
	C347.274323,180.882156 366.932861,180.885315 386.591400,180.900803 
	C388.906830,180.902618 391.489105,180.592590 391.764618,184.044357 
	C392.038940,187.481583 389.514740,187.596970 387.180847,187.940308 
	C386.522156,188.037201 385.856812,188.090012 385.194031,188.158005 
	C375.045441,189.199249 370.628601,193.348434 370.444092,203.443298 
	C370.124481,220.930328 370.372406,238.427200 370.278961,255.919403 
	C370.262207,259.055695 371.724915,259.933685 374.556396,259.928711 
	C396.213989,259.890686 417.871765,259.881927 439.529175,259.958282 
	C442.844940,259.970001 443.833954,258.488831 443.814911,255.393372 
	C443.708282,238.068100 443.879120,220.739655 443.620544,203.417313 
	C443.469482,193.296707 439.498016,189.310608 429.567383,188.127380 
	C428.079254,187.950089 426.604950,187.647934 425.114655,187.499695 
	C423.153351,187.304550 422.725220,186.075272 422.732666,184.375397 
	C422.740112,182.677261 423.268280,181.401093 425.097534,181.127502 
	C426.244720,180.955917 427.419556,180.909653 428.582062,180.908478 
	C447.907410,180.888855 467.232758,180.881546 486.558105,180.887421 
	C487.720337,180.887772 488.896637,180.933441 490.041290,181.115570 
	C491.586090,181.361389 492.264801,182.402863 492.273010,183.942505 
	C492.281311,185.500107 492.231445,187.015457 490.312622,187.478699 
	C489.505524,187.673553 488.685791,187.867981 487.861603,187.932251 
	C471.857147,189.180359 470.670807,195.301300 470.529694,207.675964 
	C470.077606,247.320999 470.349182,286.974670 470.442963,326.624817 
	C470.451172,330.093781 470.967102,333.608673 471.659119,337.018646 
	C472.947266,343.366272 477.492554,346.675415 485.679321,347.600250 
	C487.001160,347.749603 488.340607,347.735931 489.668610,347.839661 
	C491.900848,348.014008 492.957672,349.321381 492.878571,351.481079 
	C492.800873,353.602539 491.394348,354.259430 489.489655,354.261230 
	C484.492798,354.266022 479.495941,354.286896 473.999207,354.301208 
z"/>
<path fill="#000000" opacity="1.000000" stroke="none" 
	d="
M800.240967,331.198334 
	C777.798157,355.480377 750.406921,362.924011 719.160645,355.286377 
	C688.409058,347.769623 669.899597,326.812805 662.003784,297.035675 
	C653.953918,266.677277 656.469177,236.897812 675.071838,210.590027 
	C692.943604,185.315903 718.696289,174.808304 749.062500,178.139816 
	C780.029724,181.537277 802.466492,198.371277 813.984314,227.470734 
	C825.168213,255.726257 824.433960,284.358582 812.261108,312.456726 
	C809.317993,319.250214 804.973694,325.134583 800.240967,331.198334 
M702.629822,208.117767 
	C699.090088,213.387924 696.099731,218.910034 693.941345,224.927002 
	C690.369080,234.885086 688.477600,245.183411 687.758179,255.653229 
	C686.293640,276.966248 687.811523,297.930328 696.866699,317.714508 
	C707.829834,341.667419 729.918274,352.632263 753.531677,345.626495 
	C770.598572,340.562897 779.932495,327.650146 785.622131,311.834351 
	C792.803833,291.871002 793.482971,271.167236 791.236572,250.263641 
	C789.763733,236.557999 786.572083,223.389099 779.330444,211.456345 
	C761.726135,182.448196 723.329651,180.465073 702.629822,208.117767 
z"/>
<path fill="#000000" opacity="1.000000" stroke="none" 
	d="
M262.602966,181.175629 
	C266.029572,182.627518 269.038025,184.088120 272.171021,185.196960 
	C277.662994,187.140732 280.936493,185.933365 283.799255,180.807236 
	C284.993622,178.668549 286.276886,177.341675 288.859100,177.825592 
	C291.712463,178.360321 291.160767,180.654434 291.327576,182.555557 
	C292.678802,197.956711 294.045044,213.356705 295.322357,228.764038 
	C295.501068,230.919830 296.419373,233.575272 292.748718,234.149750 
	C289.097992,234.721130 288.282654,232.487152 287.462006,229.692291 
	C283.832886,217.332703 278.332397,206.067108 267.867157,197.928604 
	C259.647919,191.536774 250.331543,188.197281 239.908142,189.571198 
	C230.786133,190.773575 223.589478,195.181168 220.097702,204.266495 
	C216.253296,214.269363 219.292587,222.974548 225.632858,230.719833 
	C231.387177,237.749344 238.918854,242.781067 246.511032,247.646057 
	C258.419159,255.276688 270.805145,262.152527 281.755341,271.262115 
	C299.125946,285.712921 305.756805,304.550323 299.304962,325.092377 
	C293.962311,342.103027 281.542084,351.863251 264.492889,356.167725 
	C250.061020,359.811401 236.112427,358.022644 222.397797,352.830750 
	C219.443787,351.712433 216.466507,350.610443 213.422943,349.784882 
	C209.261719,348.656250 205.773026,349.505829 204.055435,353.979950 
	C203.267578,356.032288 202.153442,357.361237 199.666489,357.186768 
	C196.592163,356.971130 196.441452,354.555603 196.150925,352.530609 
	C194.262054,339.365082 192.421707,326.191101 190.764069,312.994934 
	C190.334534,309.575562 188.977753,306.186615 189.991959,302.404938 
	C193.895386,300.720673 196.166336,301.888702 197.827179,306.037537 
	C203.482910,320.165680 210.973801,332.969177 224.520233,341.188995 
	C233.665039,346.737946 243.568390,348.386780 253.842361,346.309296 
	C274.563354,342.119354 282.840576,317.044159 269.476929,299.583496 
	C264.027252,292.463074 256.858795,287.300354 249.491043,282.398224 
	C236.890854,274.014709 223.251999,267.178497 211.879333,256.966675 
	C196.610214,243.256149 192.063156,223.914047 199.550430,204.157974 
	C205.589157,188.224030 222.311218,177.820251 241.688431,177.610580 
	C248.795761,177.533676 255.610458,178.559235 262.602966,181.175629 
z"/>
<path fill="#000000" opacity="1.000000" stroke="none" 
	d="
M568.000000,180.884491 
	C593.499084,180.884781 618.498962,180.989456 643.496582,180.796005 
	C648.415466,180.757935 650.309570,182.245392 650.338196,187.308441 
	C650.402161,198.628616 651.016602,209.944962 651.322571,221.265137 
	C651.382263,223.473999 651.984985,226.113388 648.280273,226.340088 
	C644.938293,226.544556 644.055237,224.708359 643.518982,221.905258 
	C642.895203,218.644821 642.027222,215.405441 640.961975,212.259644 
	C636.623169,199.446991 628.864563,193.728210 615.283264,193.356567 
	C609.454346,193.197067 603.601379,193.581894 597.789856,193.224228 
	C593.204590,192.942047 592.223999,194.818085 592.237061,199.037140 
	C592.365540,240.368546 592.311523,281.700500 592.315979,323.032318 
	C592.316345,326.528198 592.413269,329.995697 592.997314,333.482086 
	C594.569702,342.868683 598.529480,346.710632 608.113403,347.642334 
	C609.936157,347.819519 611.773071,347.849854 613.596802,348.019318 
	C615.697571,348.214478 616.341003,349.562805 616.261536,351.496399 
	C616.184692,353.368256 615.148621,354.158295 613.398315,354.224976 
	C612.399475,354.263092 611.399719,354.295135 610.400330,354.295502 
	C589.734436,354.302979 569.068542,354.305969 548.402649,354.307373 
	C547.569580,354.307404 546.736511,354.278168 545.903381,354.271301 
	C543.926147,354.255066 542.792664,353.433899 542.775757,351.288330 
	C542.760010,349.296417 543.574707,348.110260 545.597473,347.894379 
	C548.238831,347.612488 550.951538,347.648956 553.513916,347.042725 
	C562.187134,344.990906 565.547363,340.814240 565.656372,331.856689 
	C565.806396,319.525391 565.790222,307.191711 565.794312,294.859070 
	C565.804871,263.026917 565.690735,231.194168 565.883545,199.363220 
	C565.913025,194.485107 564.401978,192.858597 559.626953,193.234985 
	C552.673645,193.783096 545.700317,193.052704 538.695557,194.054535 
	C527.142395,195.706894 520.595398,202.428833 517.470276,213.132416 
	C516.539917,216.318954 515.812927,219.583862 515.269226,222.858749 
	C514.763611,225.904129 512.928101,226.499756 510.271759,226.372223 
	C507.128571,226.221313 507.037933,224.210556 507.157623,221.846207 
	C507.746796,210.207779 508.432739,198.571228 508.776276,186.924927 
	C508.906525,182.509872 510.410706,180.761795 515.002930,180.812408 
	C532.500122,181.005234 550.000671,180.886673 568.000000,180.884491 
z"/>
</svg>

<svg xmlns="http://www.w3.org/2000/svg" xml:space="preserve" viewBox="0 0 1024 464"><path d="M1 348.428c9.883-.941 15.558-7.16 19.774-15.196 6.901-13.152 12.024-27.086 17.617-40.806 17.1-41.946 34.102-83.932 51.144-125.902.98-2.412 1.382-5.277 4.999-5.34 3.508-.06 4.289 2.514 5.333 5.001 19.795 47.14 39.596 94.276 59.421 141.403 3.293 7.827 6.603 15.65 10.084 23.396 3.726 8.292 8.342 15.707 18.623 16.86 2.294.256 2.933 1.996 2.77 4.024-.183 2.262-1.914 2.436-3.66 2.435q-31.744-.008-63.49-.032c-1.969-.001-3.677-.325-3.829-2.862-.164-2.748 1.54-3.387 3.757-3.544.166-.012.332-.032.498-.038 16.574-.615 16.77-8.419 12.955-20.073-3.619-11.057-8.476-21.707-12.745-32.554-.865-2.199-2.413-2.9-4.67-2.895-21.164.044-42.327.042-63.49.02-2.005-.003-3.516.415-4.271 2.567-4.186 11.924-10.01 23.266-12.787 35.688-2.401 10.743 1.331 15.914 12.158 17.06.827.088 1.663.095 2.493.165 2.263.19 3.24 1.534 3.12 3.69-.118 2.095-1.464 2.787-3.395 2.783-5.666-.01-11.332.036-16.997.024a3867 3867 0 0 1-34.95-.208C1 352.286 1 350.571 1 348.428m90.55-134.564c-1.425-2.703-1.767-5.944-4.263-9.046L57.66 279.52h60.467c-8.989-22.18-17.654-43.558-26.577-65.656M821.576 164.217c13.277-.104 26.108-.108 38.938-.232 3.282-.031 5.587 1.14 7.607 3.806 31.796 41.965 63.667 83.872 95.537 125.78 1.297 1.706 2.751 3.292 4.21 5.027 1.488-1.45.887-3.027.888-4.399.009-31.83.013-63.66-.125-95.489-.018-4.134-.514-8.327-1.327-12.385-1.919-9.57-7.276-13.762-18.558-14.91-2.504-.254-5.167.13-5.098-3.735.077-4.247 3.175-3.631 5.696-3.64 17.665-.057 35.33-.024 52.994-.015.666 0 1.332.043 1.997.08 2.32.131 3.766 1.095 3.712 3.68-.053 2.54-1.427 3.275-3.79 3.59-15.4 2.057-19.844 7.001-21.012 22.656-1.949 26.13-.609 52.294-.858 78.44-.251 26.328-.021 52.66-.095 78.991-.005 1.964 1.21 4.698-1.558 5.719-3.076 1.134-4.827-1.056-6.533-3.288A190641 190641 0 0 0 871.85 220.1c-4.42-5.773-8.927-11.48-14.472-16.922v8.307c.014 31.33-.12 62.661.138 93.99.07 8.62-.104 17.352 1.681 25.864 2.094 9.983 6.927 14.16 16.99 15.31 1.487.17 3.002.187 4.462.484 1.78.363 2.266 1.802 2.289 3.413.023 1.678-.635 2.96-2.431 3.247-1.144.183-2.32.231-3.482.232q-26.498.018-52.994-.007c-1.16-.001-2.336-.068-3.478-.26-1.826-.309-2.375-1.674-2.352-3.312.023-1.61.538-2.965 2.34-3.368a9.6 9.6 0 0 1 1.48-.224c16.754-1.056 21.234-8.206 21.526-25.09.506-29.322.206-58.657.232-87.987.013-13.999-.005-27.997-.006-41.996 0-9.378-8.813-19.328-18.203-20.525-1.322-.168-2.655-.243-3.979-.397-1.917-.224-3.597-.65-3.757-3.123-.159-2.459 1.269-3.196 3.743-3.518M474 354.301c-15.828 0-31.155.013-46.482-.015-2.426-.005-5.417.569-5.344-3.349.065-3.503 2.825-3.07 5.103-3.215 11.975-.764 16.321-5.199 16.42-17.299.143-17.658.01-35.318.182-52.976.038-3.839-1.124-5.26-5.126-5.23-21.156.165-42.316.18-63.472.008-4.102-.033-5.072 1.496-5.038 5.273.152 17.158.006 34.319.103 51.478.076 13.504 3.835 17.517 17.21 18.773 2.421.228 4.877.336 4.627 3.758-.24 3.295-2.81 2.76-4.872 2.764-20.158.04-40.317.037-60.475.023-2.315-.002-4.936.33-5.01-3.223-.066-3.21 2.288-3.142 4.477-3.33 13.095-1.123 17.185-5.458 17.332-18.75.124-11.328.042-22.658.042-33.986-.001-28.489-.004-56.977-.021-85.465-.001-1.997.034-4.013-.213-5.986-1.443-11.54-4.488-14.431-16.166-15.562-2.451-.238-5.39.047-5.209-3.739.179-3.733 3.102-3.33 5.548-3.334 19.658-.037 39.317-.034 58.975-.018 2.316.002 4.898-.308 5.174 3.143.274 3.438-2.25 3.553-4.584 3.896-.659.097-1.324.15-1.987.218-10.149 1.041-14.565 5.19-14.75 15.285-.32 17.487-.072 34.984-.165 52.476-.017 3.137 1.446 4.015 4.277 4.01 21.658-.038 43.316-.047 64.973.03 3.316.011 4.305-1.47 4.286-4.566-.107-17.325.064-34.653-.194-51.976-.152-10.12-4.123-14.106-14.054-15.29-1.488-.177-2.962-.48-4.452-.627-1.962-.195-2.39-1.425-2.382-3.125.007-1.698.535-2.974 2.365-3.247 1.147-.172 2.322-.218 3.484-.22q28.987-.03 57.976-.02c1.162 0 2.339.045 3.483.228 1.545.245 2.224 1.287 2.232 2.827.008 1.557-.042 3.072-1.96 3.536-.807.195-1.627.389-2.451.453-16.005 1.248-17.191 7.37-17.332 19.744-.452 39.645-.18 79.299-.087 118.949.008 3.469.524 6.984 1.216 10.394 1.288 6.347 5.834 9.656 14.02 10.581 1.322.15 2.662.136 3.99.24 2.232.174 3.289 1.481 3.21 3.641-.078 2.122-1.485 2.778-3.39 2.78-4.996.005-9.993.026-15.49.04"/><path d="M800.241 331.198c-22.443 24.282-49.834 31.726-81.08 24.088-30.752-7.516-49.261-28.473-57.157-58.25-8.05-30.359-5.535-60.138 13.068-86.446 17.872-25.274 43.624-35.782 73.99-32.45 30.968 3.397 53.404 20.231 64.922 49.33 11.184 28.256 10.45 56.889-1.723 84.987-2.943 6.793-7.287 12.678-12.02 18.741m-97.611-123.08c-3.54 5.27-6.53 10.792-8.689 16.809-3.572 9.958-5.463 20.256-6.183 30.726-1.464 21.313.054 42.277 9.109 62.062 10.963 23.952 33.051 34.917 56.665 27.911 17.067-5.063 26.4-17.976 32.09-33.792 7.182-19.963 7.861-40.667 5.615-61.57-1.473-13.706-4.665-26.875-11.907-38.808-17.604-29.008-56-30.99-76.7-3.338M262.603 181.176c3.427 1.452 6.435 2.912 9.568 4.021 5.492 1.944 8.765.736 11.628-4.39 1.195-2.138 2.478-3.465 5.06-2.981 2.853.534 2.302 2.828 2.469 4.73 1.35 15.4 2.717 30.8 3.994 46.208.18 2.156 1.097 4.811-2.573 5.386-3.651.571-4.466-1.663-5.287-4.458-3.63-12.36-9.13-23.625-19.595-31.763-8.22-6.392-17.535-9.732-27.959-8.358-9.122 1.203-16.319 5.61-19.81 14.695-3.845 10.003-.805 18.709 5.535 26.454 5.754 7.03 13.286 12.061 20.878 16.926 11.908 7.63 24.294 14.507 35.244 23.616 17.37 14.45 24.002 33.288 17.55 53.83-5.343 17.011-17.763 26.771-34.812 31.076-14.432 3.643-28.38 1.855-42.095-3.337-2.954-1.119-5.931-2.22-8.975-3.046-4.161-1.129-7.65-.28-9.368 4.195-.787 2.052-1.902 3.381-4.389 3.207-3.074-.216-3.225-2.631-3.515-4.656-1.889-13.166-3.73-26.34-5.387-39.536-.43-3.42-1.786-6.808-.772-10.59 3.903-1.684 6.174-.516 7.835 3.633 5.656 14.128 13.147 26.931 26.693 35.151 9.145 5.549 19.048 7.198 29.322 5.12 20.721-4.19 28.999-29.265 15.635-46.726-5.45-7.12-12.618-12.283-19.986-17.185-12.6-8.383-26.239-15.22-37.612-25.431-15.269-13.71-19.816-33.053-12.329-52.809 6.04-15.934 22.761-26.338 42.138-26.547 7.108-.077 13.922.948 20.915 3.565M568 180.884c25.5 0 50.499.105 75.497-.088 4.918-.038 6.813 1.45 6.841 6.512.064 11.32.679 22.637.985 33.957.06 2.209.662 4.848-3.043 5.075-3.342.205-4.225-1.632-4.761-4.435a73 73 0 0 0-2.557-9.645c-4.339-12.813-12.097-18.532-25.679-18.903-5.829-.16-11.682.225-17.493-.133-4.585-.282-5.566 1.594-5.553 5.813.129 41.332.075 82.663.079 123.995 0 3.496.097 6.964.681 10.45 1.573 9.387 5.532 13.229 15.116 14.16 1.823.178 3.66.208 5.484.377 2.1.195 2.744 1.544 2.665 3.477-.077 1.872-1.113 2.662-2.864 2.729-.999.038-1.998.07-2.998.07q-30.999.011-61.997.012c-.833 0-1.666-.029-2.5-.036-1.977-.016-3.11-.837-3.127-2.983-.016-1.992.799-3.178 2.821-3.394 2.642-.282 5.355-.245 7.917-.851 8.673-2.052 12.033-6.229 12.142-15.186.15-12.332.134-24.665.138-36.998.01-31.832-.103-63.665.09-95.496.029-4.878-1.482-6.504-6.257-6.128-6.953.548-13.927-.182-20.931.82-11.554 1.652-18.1 8.374-21.226 19.077a84 84 0 0 0-2.2 9.727c-.506 3.045-2.342 3.64-4.998 3.513-3.143-.15-3.234-2.161-3.114-4.526.589-11.638 1.275-23.275 1.618-34.921.13-4.415 1.635-6.163 6.227-6.113 17.497.193 34.998.075 52.997.072"/></svg>
